icons/linear-ele-nature-weather-light-rain.svg

<svg xmlns="http://www.w3.org/2000/svg" width="32px" height="32px" viewBox="0 0 32 32" version="1.1">
    <title>linear-ele-nature-weather-light-rain</title>
    <g id="linear-ele-nature-weather-light-rain" stroke-width="1" fill-rule="evenodd">
        <path d="M10,27 C10.5522847,27 11,26.5522847 11,26 C11,25.4477153 10.5522847,25 10,25 C9.44771525,25 9,25.4477153 9,26 C9,26.5522847 9.44771525,27 10,27 Z M16,27 C16.5522847,27 17,26.5522847 17,26 C17,25.4477153 16.5522847,25 16,25 C15.4477153,25 15,25.4477153 15,26 C15,26.5522847 15.4477153,27 16,27 Z M22,27 C22.5522847,27 23,26.5522847 23,26 C23,25.4477153 22.5522847,25 22,25 C21.4477153,25 21,25.4477153 21,26 C21,26.5522847 21.4477153,27 22,27 Z M19,30 C19.5522847,30 20,29.5522847 20,29 C20,28.4477153 19.5522847,28 19,28 C18.4477153,28 18,28.4477153 18,29 C18,29.5522847 18.4477153,30 19,30 Z M13,30 C13.5522847,30 14,29.5522847 14,29 C14,28.4477153 13.5522847,28 13,28 C12.4477153,28 12,28.4477153 12,29 C12,29.5522847 12.4477153,30 13,30 Z M16,2 C19.6512148,2 22.777504,4.46017016 23.7145826,7.87430526 L23.774,8.108 L23.9595605,8.14179114 C27.3380896,8.80727012 29.8821241,11.7350975 29.996017,15.2535867 L30,15.5 C30,19.6421356 26.6421356,23 22.5,23 L9.5,23 C5.35786438,23 2,19.6421356 2,15.5 C2,11.8723642 4.58346471,8.82270951 8.04107757,8.14178093 L8.225,8.108 L8.28594698,7.87451654 C9.20004946,4.54163682 12.2010006,2.1177001 15.7401033,2.00416393 L16,2 Z M16,4 C13.001082,4 10.4736282,6.21392385 10.059912,9.15338991 L9.94654862,9.95883984 L9.1348919,10.0118891 C6.25500898,10.200116 4,12.5981758 4,15.5 C4,18.5375661 6.46243388,21 9.5,21 L22.5,21 C25.5375661,21 28,18.5375661 28,15.5 C28,12.5982798 25.7450914,10.2001156 22.8658687,10.0118923 L22.054409,9.95884473 L21.9408934,9.15361494 C21.5264722,6.21389408 18.998855,4 16,4 Z" id="&#24418;&#29366;" />
    </g>
</svg>

<svg xmlns="http://www.w3.org/2000/svg" viewBox="0 0 32 32"><path fill="currentColor" d="M10 27a1 1 0 1 0 0-2 1 1 0 0 0 0 2m6 0a1 1 0 1 0 0-2 1 1 0 0 0 0 2m6 0a1 1 0 1 0 0-2 1 1 0 0 0 0 2m-3 3a1 1 0 1 0 0-2 1 1 0 0 0 0 2m-6 0a1 1 0 1 0 0-2 1 1 0 0 0 0 2m3-28a8.005 8.005 0 0 1 7.715 5.874l.059.234.186.034a7.503 7.503 0 0 1 6.036 7.112L30 15.5a7.5 7.5 0 0 1-7.5 7.5h-13A7.5 7.5 0 0 1 8.041 8.142l.184-.034.06-.233a8.004 8.004 0 0 1 7.455-5.87zm0 2a6 6 0 0 0-5.94 5.153l-.113.806-.812.053A5.5 5.5 0 0 0 9.5 21h13a5.5 5.5 0 0 0 .366-10.988l-.812-.053-.113-.805A6.001 6.001 0 0 0 16 4"/></svg>
